!!!OTL: MAEDL WENN DU MI WILLST HABE
!!!ARE: Europa, Mitteleuropa, Deutschland, Bayern; Tirol
!!!SCT: Z0304
!!!YEM: Copyright 1995, estate of Helmut Schaffrath.
**kern
*ICvox
*Ivox
*M3/4
*k[]
*C:
=1
{4.c
8e
8g
8cc
=2
4c
4c
4c}
=3
{4.cc
8b
8cc
8a
=4
8g
8a
8g
8f
4e}
=5
{4f
4a
8g
8f
=6
4e
4g
8f
8e}
=7
{4d
4f
8e
8d
=8
2c
4r}
=9
{4.c
8e
8g
8cc
=10
4c
4c
4c}
=11
{4cc
4b
12dd
12cc
12a
=12
8g
8a
8g
8f
4e}
=13
{4f
4a
8g
8f
=14
4e
4g
8f
8e}
=15
{4d
4f
8e
8d
=16
2c
4r}
==
!!!AGN: Lyrisches Lied, Romanze
!!!ONB: ESAC (Essen Associative Code) Database: ZUCCAL
!!!AMT: simple triple
!!!AIN: vox
!!!EED: Helmut Schaffrath
!!!EEV: 1.0
*-
